X:145
T: Castle View
C: BB
R: jig
Q: 1/8=320
M: 6/8
L: 1/8
K: Am
E | "Am"EcA "Em"B2 c | "G"ded BAG | "Am"EcA "G"Bcd | "Em"ecB "Am"A2 G |
"Am"EcA "Em"B2 c | "G"ded "Am"cBA | "G"GAB "F"FAc | "Em"BGE "Am"A2 :|
e | "Am"ea^f "Em"g2 a | "G"bag "D"^fed | "Am"ea^f "G"gab | "Am"age a2 e |
"Am"eaa "Em"b2 a | "G"g^fe "Am"cBA | "G"GAB "F"=FAc | "Em"BGE "Am"A2 :|
%%%%%%%%%%%%%%%%%%%%%%%%%%%%%%%%%%%%%%%%%%%
